!!!OTL: HERR SCHMIDT WAS KRIEGT DENN ROESCHEN MIT
!!!ARE: Europa, Mitteleuropa, Deutschland, Sachsen
!!!SCT: E1033
!!!YEM: Copyright 1995, estate of Helmut Schaffrath.
**kern
*ICvox
*Ivox
*M2/4
*k[f#]
*G:
{8b
=1
4dd
8r
8b
=2
4dd
8r}
{16b
16cc
=3
8dd
8b
8ee
8dd
=4
4cc
8r}
{8a
=5
4cc
8r
8a
=6
4cc
8r}
{16a
16b
=7
8cc
8a
8dd
8cc
=8
4b
8r}
{16b
16cc
=9
8dd
8b
8ee
8dd
=10
8dd
8cc
8cc}
{16a
16b
=11
8cc
8a
8dd
8cc
=12
8cc
8b
8b}
{16b
16cc
=13
8dd
8b
8ee
8dd
=14
8dd
8cc
8cc}
{16a
16b
=15
8cc
8a
8dd
8cc
=16
8cc
8b
8b}
==
!!!AGN: Tanz - Lied, Galopp - Walzer
!!!ONB: ESAC (Essen Associative Code) Database: ERK3
!!!AMT: simple duple
!!!AIN: vox
!!!EED: Helmut Schaffrath
!!!EEV: 1.0
*-
